!!!OTL: ES HUETET EIN SCHAEFER
!!!ARE: Europa, Mitteleuropa, Deutschland, Hessen, Oppenheim; Lerchheim
!!!SCT: E0212B
!!!YEM: Copyright 1995, estate of Helmut Schaffrath.
**kern
*ICvox
*Ivox
*M6/8
*k[f#c#g#]
*A:
{8e
=1
8e
8a
8a
8a
8cc#
8cc#
=2
8cc#
8ee
8ee
4ee
8ee
=3
2cc#
8r}
{8e
=4
8e
8a
8a
8a
8cc#
8cc#
=5
8cc#
8ee
8ee
4ee
8ee
=6
2cc#
8r}
{8cc#
=7
4cc#
8ee
4ee
8ee
=8
4ff#
8ee
4cc#
8ee
=9
2cc#
8r}
{8cc#
=10
4cc#
8ee
4ee
8ee
=11
4ff#
8ee
4cc#}
{8ee
=12
8cc#
8a
8a
4b
8e
=13
2a
8r}
==
!!!AGN: erzaehlendes Volks - Lied, Mahn -, Moral - Lied, Strafe; Rabenmutter
!!!ONB: ESAC (Essen Associative Code) Database: ERK1
!!!AMT: compound duple
!!!AIN: vox
!!!EED: Helmut Schaffrath
!!!EEV: 1.0
*-
